images_files/environmentVG/clouds1.svg

<svg xmlns="http://www.w3.org/2000/svg" width="453" height="358" fill="none" xmlns:v="https://vecta.io/nano"><g filter="url(#A)"><path fill-rule="evenodd" d="M384.991 260.881H257.994 71.499a4 4 0 0 1-4-4V144.474a4 4 0 0 1 4-4h77.93c2.293 0 3.44 0 4.248-.62s1.118-1.779 1.74-4.097c11.638-43.429 53.15-75.554 102.577-75.554s90.94 32.125 102.578 75.554c.621 2.318.932 3.477 1.74 4.097s1.954.62 4.247.62h18.432c35.069 0 63.499 26.954 63.499 60.203s-28.43 60.204-63.499 60.204z" fill="#f3f2f2"/></g><g filter="url(#B)"><path fill-rule="evenodd" d="M100.076 312.927C47.015 312.927 4 270.551 4 218.277s43.015-94.651 96.076-94.651c45.226 0 83.154 30.787 93.368 72.248.814 3.303 1.221 4.954 2.274 5.598s2.76.241 6.174-.565c4.323-1.02 8.834-1.56 13.474-1.56 31.837 0 57.646 25.426 57.646 56.791s-25.809 56.79-57.646 56.79c-17.873 0-33.846-8.013-44.42-20.592-2.242-2.668-3.364-4.002-4.587-4.118s-2.529.947-5.141 3.072c-16.612 13.517-37.915 21.637-61.142 21.637z" fill="#dad9d9"/></g><defs><filter id="A" x="63.499" y="60.203" width="388.991" height="208.677" filterUnits="userSpaceOnUse" color-interpolation-filters="sRGB"><feFlood flood-opacity="0" result="A"/><feColorMatrix in="SourceAlpha" values="0 0 0 0 0 0 0 0 0 0 0 0 0 0 0 0 0 0 127 0" result="B"/><feOffset dy="4"/><feGaussianBlur stdDeviation="2"/><feComposite in2="B" operator="out"/><feColorMatrix values="0 0 0 0 0 0 0 0 0 0 0 0 0 0 0 0 0 0 0.25 0"/><feBlend in2="A"/><feBlend in="SourceGraphic"/></filter><filter id="B" x="0" y="123.626" width="277.012" height="197.302" filterUnits="userSpaceOnUse" color-interpolation-filters="sRGB"><feFlood flood-opacity="0" result="A"/><feColorMatrix in="SourceAlpha" values="0 0 0 0 0 0 0 0 0 0 0 0 0 0 0 0 0 0 127 0" result="B"/><feOffset dy="4"/><feGaussianBlur stdDeviation="2"/><feComposite in2="B" operator="out"/><feColorMatrix values="0 0 0 0 0 0 0 0 0 0 0 0 0 0 0 0 0 0 0.25 0"/><feBlend in2="A"/><feBlend in="SourceGraphic"/></filter></defs></svg>

<svg width="453" height="358" viewBox="0 0 453 358" fill="none" xmlns="http://www.w3.org/2000/svg">
<g filter="url(#filter0_d_115_70)">
<path fill-rule="evenodd" clip-rule="evenodd" d="M384.991 260.881L257.994 260.881L71.4986 260.881C69.2894 260.881 67.4986 259.09 67.4986 256.881V144.474C67.4986 142.265 69.2894 140.474 71.4986 140.474H149.429C151.722 140.474 152.869 140.474 153.677 139.854C154.485 139.234 154.795 138.075 155.417 135.757C167.055 92.3281 208.567 60.2031 257.994 60.2031C307.421 60.2031 348.934 92.3281 360.572 135.757C361.193 138.075 361.504 139.234 362.312 139.854C363.119 140.474 364.266 140.474 366.559 140.474H384.991C420.06 140.474 448.49 167.428 448.49 200.677C448.49 233.927 420.06 260.881 384.991 260.881Z" fill="#F3F2F2"/>
</g>
<g filter="url(#filter1_d_115_70)">
<path fill-rule="evenodd" clip-rule="evenodd" d="M100.076 312.927C47.0145 312.927 4 270.551 4 218.277C4 166.003 47.0145 123.626 100.076 123.626C145.302 123.626 183.23 154.413 193.444 195.874C194.258 199.177 194.665 200.828 195.718 201.472C196.77 202.115 198.478 201.713 201.892 200.907C206.215 199.887 210.726 199.347 215.366 199.347C247.203 199.347 273.012 224.773 273.012 256.138C273.012 287.502 247.203 312.928 215.366 312.928C197.493 312.928 181.52 304.915 170.946 292.336C168.704 289.668 167.582 288.334 166.359 288.218C165.136 288.102 163.83 289.165 161.218 291.29C144.606 304.807 123.303 312.927 100.076 312.927Z" fill="#DAD9D9"/>
</g>
<defs>
<filter id="filter0_d_115_70" x="63.4985" y="60.2031" width="388.991" height="208.677" filterUnits="userSpaceOnUse" color-interpolation-filters="sRGB">
<feFlood flood-opacity="0" result="BackgroundImageFix"/>
<feColorMatrix in="SourceAlpha" type="matrix" values="0 0 0 0 0 0 0 0 0 0 0 0 0 0 0 0 0 0 127 0" result="hardAlpha"/>
<feOffset dy="4"/>
<feGaussianBlur stdDeviation="2"/>
<feComposite in2="hardAlpha" operator="out"/>
<feColorMatrix type="matrix" values="0 0 0 0 0 0 0 0 0 0 0 0 0 0 0 0 0 0 0.25 0"/>
<feBlend mode="normal" in2="BackgroundImageFix" result="effect1_dropShadow_115_70"/>
<feBlend mode="normal" in="SourceGraphic" in2="effect1_dropShadow_115_70" result="shape"/>
</filter>
<filter id="filter1_d_115_70" x="0" y="123.626" width="277.012" height="197.302" filterUnits="userSpaceOnUse" color-interpolation-filters="sRGB">
<feFlood flood-opacity="0" result="BackgroundImageFix"/>
<feColorMatrix in="SourceAlpha" type="matrix" values="0 0 0 0 0 0 0 0 0 0 0 0 0 0 0 0 0 0 127 0" result="hardAlpha"/>
<feOffset dy="4"/>
<feGaussianBlur stdDeviation="2"/>
<feComposite in2="hardAlpha" operator="out"/>
<feColorMatrix type="matrix" values="0 0 0 0 0 0 0 0 0 0 0 0 0 0 0 0 0 0 0.25 0"/>
<feBlend mode="normal" in2="BackgroundImageFix" result="effect1_dropShadow_115_70"/>
<feBlend mode="normal" in="SourceGraphic" in2="effect1_dropShadow_115_70" result="shape"/>
</filter>
</defs>
</svg>
